X:115
T:title illegible. RHu.115
S:R.Hughes MS,1823,Whitchurch,Shrops.
A:Whitchurch, Shropshire
Z:Tony Weatherall 2006
M:2/4
L:1/8
Q:1/4=100
R:Country Dance
K:D
a>g f/a/f/a/|ggez|d/c/B/A/ Bc|d/e/f/d/ Az|!
a>g f/a/f/a/|ggez|d/c/d/e/ f/e/f/g/|a3z:|!
|:bbgz|aafz|ggez|c/d/e/c/ Az|!
bb g/a/b/g/|aa f/g/a/f/|g/f/e/d/c/d/e/f/|e3z|!
a>g f/a/f/a/|ggez|d/c/B/A/ Bc|d/e/f/d/ Az|!
a>g f/a/f/a/|gge>g|f/g/a/b/ a/g/f/e/|dd’/c’/ d’/c’/b/a/|!
b/c’/d’/c’/ d’/b/a/g/|fd’/c’/ d’/c’/b/a/|b/c’/d’/c’/ d’/c’/b/a/|!
fa g/f/e/d/|e4{de}|dd’d’d’|d’2d’2|d’4:|

